X:217
T:Sunset, The
R:reel
C:Cathal McConnell & Seamus Quinn
D:Altan: Altan
Z:id:hn-reel-217
M:C|
K:D
ed |: cF~F2 c2dc | BG (3Bcd deed | =cdeg d2Ad | dfed ^cded |
cF~F2 c2dc | BG (3Bcd deed | =cdeg fde^c |1  dfec d2ed :|2  dfec d2ag ||
|: fdfg a2gf | e=cef g3a | fg (3agf gfe^c | dfed ^cded |
cF~F2 c2dc | BG (3Bcd deed | =cdeg fde^c | dfec d2ag :|
P:2nd part sometimes played like this 2nd time around
=fdfg a2gf | e=ce=f g3a | fg (3agf gfe^c | dfed ^cded |
cF~F2 c2dc | BG (3Bcd deed | =cdeg fde^c | dfec d2 ||

